X:1
T:Title
%%score { 1 | ( 2 3 ) }
L:1/8
M:3/4
K:Ab
V:1 bass nm="Grand Piano"
V:2 bass 
V:3 bass 
V:1
 z2 z2[Q:1/4=100] [A,CE]2 | [A,CE]2 [E,A,C]2[K:treble] [A,CE]2 | [CEA]2 [A,CE]2 [CEA]2 | %3
 [EAc]2 [DEB]2 [CEA]2 | [DGB]4 [_Gc]2 | [Fd]2 [DF]2 [Fd]2 | [Ec]2 [CE]2 [Ec]2 | %7
 [=DB]2 [DF]2 [DB]2 | [DB]4[K:bass] [G,DE]2 | [A,CE]2 [E,A,C]2[K:treble] [A,CE]2 | %10
 [CEA]2 [A,CE]2 [CEA]2 | [EAc]2 [EB]2 .[=DFA]2 | [Ge]4 [Gd]2 | c3 d e2 | [_Ge]2 [Fd]2 [DFB]2 | %15
 [CEA]2 [DEB]2 [B,EG]2 | [CEA]6 | E2 C2 E2 | [A,CA]2 z2 z2 | [A,DF]2 [F,D]2 [A,DF]2 | %20
 [DFB]2 DF BA | G3 F G2 | A2 G2 A2 | [=Dc]4 [DB]2 | B2 EF GF | E2 C2 E2 | [A,CA]2 z2 z2 | %27
 [A,DF]2 [F,D]2 [A,DF]2 | [DFB]4 [B,FA]2 | [B,EG]2 [EB]2 [Gd]2 | [Gd]2 [CEc]2 [DFB]2 | %31
 [CEA]2 [DEB]2 [B,EG]2 | [CEA]4 z2 |] %33
V:2
 z2 z2 A,,2 | A,,2 A,,2 A,,2 | A,,2 A,,2 A,,2 | A,2 A,2 A,2 | E,4 A,2 | [D,A,]2 [D,A,]2 [D,A,]2 | %6
 [A,,A,]2 [A,,A,]2 [A,,A,]2 | [B,,F,]2 [B,,A,]2 [B,,A,]2 | [E,G,]4 E,2 | A,,2 A,,2 A,,2 | %10
 A,,2 A,,2 A,,2 | A,2 G,2 z B, | [E,B,]4 [E,B,]2 | [A,E]3 [A,B,E] [A,CE]2 | [C,A,]2 [D,A,]2 D,2 | %15
 E,2 E,2 E,2 | A,,6 | E,2 C,2 E,2 | A,,2[K:treble] CE AG | D,2 D,2 D,2 | D,2 z2 z2 | %21
 [E,B,D]3 [E,A,D] [E,B,D]2 | [F,A,C]2 [F,B,C]2 [F,A,C]2 | [B,,F,A,]4 [B,,A,]2 | [E,G,D]2 z2 z2 | %25
 E,2 C,2 E,2 | A,,2 C[K:treble]E AG | D,2 D,2 D,2 | D,4 D,2 | E,2 [E,G,]2 [E,B,]2 | B,2 A,2 D,2 | %31
 E,2 E,2 E,2 | A,,4 z2 |] %33
V:3
 x6 | x6 | x6 | x6 | x6 | x6 | x6 | x6 | x6 | x6 | x6 | z2 z2 F,2 | x6 | x6 | x6 | x6 | x6 | x6 | %18
 x2[K:treble] x4 | x6 | x6 | x6 | x6 | x6 | x6 | x6 | x3[K:treble] x3 | x6 | x6 | x6 | x6 | x6 | %32
 x6 |] %33

